X: 31379
T: Paddy O'Rafferty's
R: jig
M: 6/8
K: Amajor
|:EAc EAd|EAc BAF|EAc EAd|~c2B A2F|
EAc EAd|EAc efg|aec BAB|1 cAG A2F:|2 cAG A2f||
|:e3 faf|e3 ecd|e3 faf|ecA AFE|
e3 faf|e3 efg|aec BAB|1 cAG A2f:|2 cAG A2F||

